icon/cg/chevron-down-r.svg

<svg viewBox="0 0 24 24" fill="none" xmlns="http://www.w3.org/2000/svg" height="1em" width="1em">
  <path d="M7.75739 10.5858L9.1716 9.17154L12 12L14.8284 9.17157L16.2426 10.5858L12 14.8284L7.75739 10.5858Z" fill="currentColor"/>
  <path fill-rule="evenodd" clip-rule="evenodd" d="M1 5C1 2.79086 2.79086 1 5 1H19C21.2091 1 23 2.79086 23 5V19C23 21.2091 21.2091 23 19 23H5C2.79086 23 1 21.2091 1 19V5ZM5 3H19C20.1046 3 21 3.89543 21 5V19C21 20.1046 20.1046 21 19 21H5C3.89543 21 3 20.1046 3 19V5C3 3.89543 3.89543 3 5 3Z" fill="currentColor"/>
</svg>

<svg width="24" height="24" fill="none" xmlns="http://www.w3.org/2000/svg"><path d="m7.757 10.586 1.415-1.414L12 12l2.828-2.828 1.415 1.414L12 14.828l-4.243-4.242Z" fill="currentColor"/><path fill-rule="evenodd" clip-rule="evenodd" d="M1 5a4 4 0 0 1 4-4h14a4 4 0 0 1 4 4v14a4 4 0 0 1-4 4H5a4 4 0 0 1-4-4V5Zm4-2h14a2 2 0 0 1 2 2v14a2 2 0 0 1-2 2H5a2 2 0 0 1-2-2V5a2 2 0 0 1 2-2Z" fill="currentColor"/></svg>
